!!!COM: Scriabin, Alexander
!!!OTL@@FR: Prélude en fa dièse mineur
!!!OTL@@EN: Prelude in F# Minor
!!!OPR@@FR: 4 Préludes
!!!OPR@@EN: 4 Preludes
!!!OPS: 31
!!!ONM: 2
!!!ODT: 1903
!!!AGN: Prelude
**kern	**kern	**dynam
*staff2	*staff1	*staff1/2
*Ipiano	*Ipiano	*
*clefF4	*clefG2	*
*k[f#c#g#]	*k[f#c#g#]	*
*f#:	*f#:	*
*M2/4	*M2/4	*
16FFF# 16FF#	16A 16d 16f#	.
=1	=1	=1
4.DD 4.D	4.G# 4.B 4.e	.
8CC# 8C#	8G# 8c# 8e#X	.
=2	=2	=2
*	*^	*
12.FFF#L 12.FF#	[4G# [4d	[4b	.
24FFF#k 24FF#	.	.	.
12FFF#J 12FF#	.	.	.
8.FFF#L 8.FF#	8.G#L] 8.d]	8.bL]	.
16FFF#Jk 16FF#	16AJk 16d	48aLL	.
.	.	48g#	.
.	.	48f#JJJ	.
*	*v	*v	*
=3	=3	=3
4.DD 4.D	4.G# 4.B 4.e	.
8CC# 8C#	8G# 8c# 8e#X	.
=4	=4	=4
*	*^	*
12.FFF#L 12.FF#	[4G# [4d	[4b	.
24FFF#k 24FF#	.	.	.
12FFF#J 12FF#	.	.	.
8.FFF#L 8.FF#	8.G#L] 8.d]	8.bL]	.
16FF#Jk 16F#	[16AJk [16d	16aJk	.
=5	=5	=5	=5
[4BBB#X [4BB#X	4A_ 4d_	4g#	.
8.BBB#L] 8.BB#]	8.AL] 8.d]	8.f#L	.
16CC#Jk 16C#	[16AJk	16eJk	.
=6	=6	=6	=6
[2FFF##X [2FF##X	[2E 2A_	4d#X	.
.	.	[4c#	.
*	*v	*v	*
=7	=7	=7
4FFF##] 4FF##]	4E] 4A] 4c#]	.
*	*clefF4	*
[4GGG# [4GG#	[4Dn [4F# [4B#X	.
=8	=8	=8
4GGG#] 4GG#]	4D] 4F#] 4B#]	.
[4CCC# [4CC#	[4C# [4E#X [4c#	.
=9	=9	=9
4CCC#] 4CC#]	4C#] 4E#] 4c#]	.
4GGG# 4GG#	4D 4F# 4B#X	.
=10	=10	=10
4GGG# 4GG#	4D 4F# 4B#X	.
8.CCC# 8.CC#	8.C# 8.E#X 8.c#	.
*	*clefG2	*
16BBB 16BB	16d 16gn 16b	.
=11	=11	=11
4.GGn 4.Gn	4.c# 4.e 4.a	.
8FF# 8F#	8c# 8f# 8a#X	.
=12	=12	=12
*	*^	*
12.BBBL 12.BB	[4c# [4gn	[4ee	.
24BBBk 24BB	.	.	.
12BBBJ 12BB	.	.	.
8.BBBL 8.BB	8.c#L] 8.g]	8.eeL]	.
16BBBJk 16BB	16dJk 16g	48ddLL	.
.	.	48cc#	.
.	.	48bJJJ	.
*	*v	*v	*
=13	=13	=13
4.GGn 4.Gn	4.c# 4.e 4.a	.
8FF# 8F#	8c# 8f# 8a#X	.
=14	=14	=14
*	*^	*
12.BBBL 12.BB	[4c# [4gn	[4ee	.
24BBBk 24BB	.	.	.
12BBBJ 12BB	.	.	.
8.BBBL 8.BB	8.c#L] 8.g]	8.eeL]	.
16BBJk 16B	[16dJk [16g	16ddJk	.
=15	=15	=15	=15
[4EE#X [4E#X	4d_ 4g_	4cc#	.
8.EE#L] 8.E#]	8.dL] 8.g]	8.bL	.
16FF#Jk 16F#	[16dJk	16aJk	.
=16	=16	=16	=16
[2BBB#X [2BB#X	[2A 2d_	4g#X	.
.	.	[4f#	.
=17	=17	=17	=17
4BBB#] 4BB#]	4A] 4d]	4f#]	.
[4CC# [4C#	[4G# [4c#	[4e#X	.
=18	=18	=18	=18
4CC#] 4C#]	4G#] 4c#]	4e#]	.
8.AAA#XL 8.AA#X	8.F#L 8.c#	8.f#L	.
16BBBJk 16BB	[16GnJk	16dJk	.
*	*clefF4	*	*
=19	=19	=19	=19
[4EE#X	[4D 4G_	4c#	.
8.EE#L]	8.DL] 8.G]	8.BL	.
16FF#Jk	[16DJk	16AJk	.
=20	=20	=20	=20
[2BBB#X	[2AA 2D_	4G#X	.
.	.	[4F#	.
*	*v	*v	*
=21	=21	=21
4BBB#]	4AA] 4D] 4F#]	.
[4CC#	4GG# [4C# [4E#X	.
=22	=22	=22
4CC#]	4GG# 4C#] 4E#]	.
[4FFF#	[4FF# [4C# [4F#	.
=23	=23	=23
4FFF#]	4FF#] 4C#] 4F#]	.
4CC# 4GG# 4C#	4E#X 4c# 4e#X	.
=24	=24	=24
4CC# 4GG# 4C#	4E#X 4c# 4e#X	.
4FFF# 4CC# 4FF# 4C#	4F# 4c# 4f#	.
==	==	==
*-	*-	*-
!!!system-decoration: {(*)}
!!!filter: flipper -a
!!!ENC: Bryan Jacob Bell
!!!END: November 2021 to April 2022
!!!PED: Konstantin Igumnov and Yakov Milstein
!!!PTL: A.N. Skryabin: Polnoe sobranie sochinenii dlia fortepiano (Muzgiz)
